; Postprocessed by [ArcWelder](https://github.com/FormerLurker/ArcWelderLib)
; Copyright(C) 2021 - Brad Hochgesang
; Version: 1.2.0, Branch: master, BuildDate: 2021-11-22T09:56:32Z
; resolution=0.05mm
; path_tolerance=5.0%
; max_radius=9999.00mm
; default_xyz_precision=3
; default_e_precision=5
; extrusion_rate_variance_percent=5.0%
; generated by Slic3r 1.3.0 on 2023-08-01 at 16:24:44
; external perimeters extrusion width = 0.08mm (0.08mm^3/s)
; perimeters extrusion width = 0.08mm (0.08mm^3/s)
; infill extrusion width = 0.08mm (0.08mm^3/s)
; solid infill extrusion width = 0.08mm (0.08mm^3/s)
; top infill extrusion width = 0.08mm (0.08mm^3/s)
; Filament gcode
G21 ; set units to millimeters
G90 ; use absolute coordinates
G1 Z-149.920 F900.000
G1 X3.608 Y6.739 F900.000
G1 F900
G1 X3.638 Y6.739 0.00000
G1 X3.682 Y6.922 0.00000
G1 X3.697 Y6.922 0.00000
G1 X3.697 Y7.522 0.00000
G1 X3.549 Y7.522 0.00000
G1 X3.550 Y6.922 0.00000
G1 X3.564 Y6.922 0.00000
G2 X3.608 Y6.472 I-0.963 J-0.321
G1 F900
G1 X3.638 Y6.472 0.00000
G1 X3.732 Y6.859 0.00000
G1 X3.759 Y6.859 0.00000
G1 X3.759 Y7.584 0.00000
G1 X3.487 Y7.584 0.00000
G1 X3.487 Y6.859 0.00000
G1 X3.515 Y6.859 0.00000
G1 X3.605 Y6.484 0.00000
G1 X3.632 Y6.490 F900.000
G1 X4.348 Y6.202 F900.000
G1 F900
G1 X4.518 Y6.264 0.00000
G1 X4.488 Y6.232 F900.000
G1 F900
G1 X3.611 Y6.234 0.00000
G2 X2.837 Y5.836 I-3.223 J5.317
G1 F900
G1 X2.747 Y5.789 0.00000
G1 X2.941 Y5.300 0.00000
G1 X3.072 Y5.331 0.00000
G1 X2.842 Y5.825 0.00000
G1 X2.788 Y5.773 F900.000
G1 X3.127 Y5.309 F900.000
G1 F900
G1 X3.327 Y5.245 0.00000
G1 X3.234 Y5.228 F900.000
G1 F900
G1 X3.308 Y5.214 0.00000
G1 X4.295 Y5.214 0.00000
G1 X4.943 Y5.805 F900.000
G1 F900
G1 X5.006 Y5.884 0.00000
G3 X4.552 Y6.225 I-1.186 J-1.107
G1 F900
G1 X4.646 Y6.195 0.00000
G3 X4.666 Y6.298 I-0.069 J0.067
G1 X4.562 Y6.232 0.00000
G1 X4.624 Y6.220 F900.000
G1 X4.705 Y6.317 F900.000
G1 F900
G1 X5.086 Y6.567 0.00000
G1 X4.949 Y6.524 F900.000
G1 F900
G1 X5.082 Y6.544 0.00000
G1 X5.883 Y6.543 0.00000
G1 X6.409 Y6.296 0.00000
G3 X6.493 Y6.164 I0.114 J-0.020
G1 F900
G1 X6.263 Y5.825 0.00000
G1 X6.479 Y6.223 F900.000
G1 F900
G1 X6.512 Y6.200 0.00000
G1 X6.540 Y6.243 0.00000
G1 X6.491 Y6.251 0.00000
G2 X6.479 Y6.223 I-0.395 J0.152
G1 X7.179 Y5.250 F900.000
G1 F900
G1 X6.289 Y5.791 0.00000
G1 X6.263 Y5.825 0.00000
G1 X6.218 Y5.812 0.00000
G1 X5.297 Y5.812 0.00000
G1 X5.226 Y5.778 F900.000
G1 F900
G1 X5.128 Y5.746 0.00000
G1 X3.158 Y5.320 F900.000
G1 F900
G1 X3.234 Y5.241 0.00000
G2 X2.906 Y5.114 I-0.268 J0.204
G1 X3.005 Y5.099 F900.000
G1 F900
G1 X2.881 Y5.149 0.00000
G2 X2.905 Y5.239 I0.058 J0.033
G1 X6.777 Y4.433 F900.000
G1 F900
G1 X6.957 Y4.448 0.00000
G1 X6.870 Y4.466 F900.000
G1 F900
G1 X6.769 Y4.394 0.00000
G1 X4.512 Y5.217 F900.000
G1 F900
G1 X5.046 Y5.724 0.00000
G1 X4.981 Y5.739 0.00000
G1 X4.382 Y5.208 0.00000
G1 X5.154 Y4.262 0.00000
G1 X5.227 Y4.237 0.00000
G1 X6.799 Y4.237 0.00000
G2 X6.764 Y4.354 I0.038 J0.075
G1 X5.265 Y4.354 0.00000
G1 X4.520 Y5.208 0.00000
G1 X4.449 Y5.266 F900.000
G1 X6.888 Y4.185 F900.000
G1 F900
G3 X7.215 Y4.211 I0.150 J0.176
G3 X7.001 Y4.458 I-0.372 J-0.106
G1 F900
G1 X7.060 Y4.436 0.00000
G1 X7.247 Y5.163 0.00000
G1 X7.212 Y5.172 0.00000
G1 X7.005 Y4.469 0.00000
G1 X7.063 Y4.468 F900.000
G1 X3.623 Y6.945 F900.000
G1 F900
G1 X3.634 Y7.039 0.00000
G2 X3.612 Y7.166 I0.053 J0.075
G1 X3.634 Y7.144 0.00000
G1 X3.634 Y7.249 0.00000
G1 X3.612 Y7.270 0.00000
G1 X3.612 Y7.375 0.00000
G1 X3.634 Y7.354 0.00000
G1 X3.634 Y7.459 0.00000
G1 X2.909 Y3.630 F900.000
G1 F900
G1 X2.886 Y3.662 0.00000
G1 X2.852 Y3.635 0.00000
G1 X2.881 Y3.603 0.00000
G3 X2.909 Y3.630 I-0.014 J0.043
G1 X2.525 Y3.633 F900.000
G1 F900
G1 X2.514 Y3.654 0.00000
G1 X2.473 Y3.651 0.00000
G1 X2.478 Y3.610 0.00000
G1 X2.521 Y3.622 0.00000
G1 X2.525 Y3.633 F900.000
G1 X7.318 Y0.725 F900.000
G1 F900
G1 X7.322 Y0.693 0.00000
G1 X7.459 Y0.689 0.00000
G3 X7.458 Y0.768 I-0.039 J0.039
G1 X7.329 Y0.729 0.00000
G1 X7.337 Y0.700 F900.000
G1 X7.500 Y0.686 F900.000
G1 F900
G2 X7.411 Y0.052 I-0.067 J-0.314
G2 X6.919 Y0.055 I-0.239 J1.164
G1 X6.911 Y0.094 0.00000
G1 X6.923 Y0.713 0.00000
G1 F900
G1 X6.911 Y1.251 0.00000
G1 X6.920 Y1.291 0.00000
G2 X7.516 Y1.205 I0.185 J-0.823
G2 X7.280 Y0.708 I-0.216 J-0.202
G1 F900
G1 X6.923 Y0.713 0.00000
G1 X5.140 Y0.402 F900.000
G1 F900
G1 X4.938 Y0.000 0.00000
G1 X5.140 Y0.402 F900.000
G1 F900
G1 X5.192 Y0.388 0.00000
G1 X5.875 Y0.402 0.00000
G1 F900
G1 X5.867 Y0.454 0.00000
G1 X5.559 Y1.153 0.00000
G1 X5.518 Y1.200 0.00000
G1 X5.473 Y1.153 0.00000
G1 X5.149 Y0.455 0.00000
G1 X5.140 Y0.402 0.00000
G1 X5.875 Y0.402 F900.000
G1 F900
G1 X6.067 Y0.000 0.00000
G1 X0.192 Y3.095 F900.000
G1 F900
G1 X0.066 Y3.273 0.00000
G1 X0.040 Y3.265 0.00000
G1 X0.040 Y3.046 0.00000
G1 X0.181 Y3.091 0.00000
G1 X0.144 Y3.158 F900.000
G1 X0.210 Y3.058 F900.000
G1 F900
G1 X0.698 Y2.391 0.00000
G1 X1.178 Y3.055 0.00000
G1 X1.341 Y3.004 F900.000
G1 F900
G1 X1.341 Y2.074 0.00000
G1 X1.196 Y3.091 F900.000
G1 F900
G1 X1.348 Y3.043 0.00000
G1 X1.348 Y3.263 0.00000
G1 X1.322 Y3.271 0.00000
G1 X1.203 Y3.101 0.00000
G1 X1.275 Y3.098 F900.000
G1 X0.047 Y3.007 F900.000
G1 F900
G1 X0.047 Y2.075 0.00000
G1 X9.938 Y2.074 F900.000
G1 F900
G1 X9.480 Y2.629 0.00000
G1 X9.457 Y2.691 0.00000
G3 X9.945 Y3.110 I0.060 J0.423
G3 X9.668 Y3.361 I-0.360 J-0.119
G1 X9.174 Y3.375 0.00000
G1 X9.133 Y3.367 0.00000
G1 X9.126 Y3.331 0.00000
G1 X9.126 Y2.078 0.00000
G1 X8.270 Y2.122 F900.000
G1 F900
G1 X7.453 Y2.130 0.00000
G1 X7.457 Y2.748 0.00000
G1 F900
G1 X7.453 Y3.366 0.00000
G1 X8.271 Y3.374 0.00000
G1 X8.099 Y2.748 F900.000
G1 F900
G1 X7.457 Y2.748 0.00000
G1 X6.588 Y2.122 F900.000
G1 F900
G1 X5.794 Y2.130 0.00000
G1 X5.786 Y3.421 0.00000
G1 X4.930 Y2.122 F900.000
G1 F900
G1 X4.135 Y2.130 0.00000
G1 X4.127 Y3.421 0.00000
G1 X3.203 Y3.421 F900.000
G1 F900
G1 X3.203 Y2.561 0.00000
G2 X2.271 Y2.567 I-0.466 J0.014
G1 X2.271 Y3.421 0.00000
G1 X4.159 Y0.047 F900.000
G1 F900
G1 X3.364 Y0.055 0.00000
G1 X3.356 Y1.347 0.00000
; Filament-specific end gcode 
;END gcode for filament
M104 S0 ; set temperature
; filament used = 0.0mm (0.0cm3)
; total filament cost = 0.0
; avoid_crossing_perimeters = 0
; bed_shape = 0x0,250x0,250x250,0x250
; bed_temperature = 0
; before_layer_gcode = 
; between_objects_gcode = 
; bridge_acceleration = 0
; bridge_fan_speed = 0
; brim_connections_width = 0
; brim_width = 0
; complete_objects = 1
; cooling = 0
; default_acceleration = 0
; disable_fan_first_layers = 3
; duplicate_distance = 6
; end_filament_gcode = "; Filament-specific end gcode \n;END gcode for filament\n"
; end_gcode = 
; extruder_clearance_height = 20
; extruder_clearance_radius = 20
; extruder_offset = 0x0
; extrusion_axis = E
; extrusion_multiplier = 1
; fan_always_on = 0
; fan_below_layer_time = 60
; filament_colour = #FFFFFF
; filament_cost = 0
; filament_density = 0
; filament_diameter = 3
; filament_max_volumetric_speed = 0
; filament_notes = ""
; first_layer_acceleration = 0
; first_layer_bed_temperature = 0
; first_layer_extrusion_width = 100%
; first_layer_speed = 15
; first_layer_temperature = 0
; gcode_arcs = 0
; gcode_comments = 0
; gcode_flavor = no-extrusion
; has_heatbed = 0
; infill_acceleration = 0
; infill_first = 0
; interior_brim_width = 0
; layer_gcode = 
; max_fan_speed = 100
; max_layer_height = 10
; max_print_speed = 80
; max_volumetric_speed = 0
; min_fan_speed = 35
; min_layer_height = 0
; min_print_speed = 10
; min_skirt_length = 0
; notes = 
; nozzle_diameter = 0.08
; only_retract_when_crossing_perimeters = 0
; ooze_prevention = 0
; output_filename_format = [input_filename_base].gcode
; perimeter_acceleration = 0
; post_process = /Users/nathanbrown/Documents/School/Research/JohnsHopkins/Other/ArcWelderCode/ArcWelder
; pressure_advance = 0
; printer_notes = 
; resolution = 0
; retract_before_travel = 0
; retract_layer_change = 0
; retract_length = 0
; retract_length_toolchange = 10
; retract_lift = 2
; retract_lift_above = 0
; retract_lift_below = 0
; retract_restart_extra = 0
; retract_restart_extra_toolchange = 0
; retract_speed = 20
; skirt_distance = 6
; skirt_height = 1
; skirts = 0
; slowdown_below_layer_time = 5
; spiral_vase = 0
; standby_temperature_delta = -5
; start_filament_gcode = "; Filament gcode\n"
; start_gcode = 
; temperature = 0
; threads = 16
; toolchange_gcode = 
; travel_speed = 15
; use_firmware_retraction = 0
; use_relative_e_distances = 0
; use_set_and_wait_bed = 0
; use_set_and_wait_extruder = 0
; use_volumetric_e = 0
; vibration_limit = 0
; wipe = 0
; z_offset = -150
; z_steps_per_mm = 0
; adaptive_slicing = 0
; adaptive_slicing_quality = 75%
; dont_support_bridges = 1
; extrusion_width = 100%
; first_layer_height = 0.08
; infill_only_where_needed = 0
; interface_shells = 0
; layer_height = 0.08
; match_horizontal_surfaces = 0
; raft_layers = 0
; regions_overlap = 0
; seam_position = aligned
; sequential_print_priority = 0
; support_material = 0
; support_material_angle = 0
; support_material_buildplate_only = 0
; support_material_contact_distance = 0.2
; support_material_enforce_layers = 0
; support_material_extruder = 1
; support_material_extrusion_width = 0
; support_material_interface_extruder = 1
; support_material_interface_extrusion_width = 0
; support_material_interface_layers = 3
; support_material_interface_spacing = 0
; support_material_interface_speed = 100%
; support_material_max_layers = 0
; support_material_pattern = pillars
; support_material_spacing = 2.5
; support_material_speed = 15
; support_material_threshold = 60%
; xy_size_compensation = 0
; bottom_infill_pattern = rectilinear
; bottom_solid_layers = 0
; bridge_flow_ratio = 1
; bridge_speed = 15
; external_perimeter_extrusion_width = 100%
; external_perimeter_speed = 15
; external_perimeters_first = 0
; extra_perimeters = 0
; fill_angle = 45
; fill_density = 100%
; fill_gaps = 0
; fill_pattern = rectilinear
; gap_fill_speed = 15
; infill_every_layers = 1
; infill_extruder = 1
; infill_extrusion_width = 100%
; infill_overlap = 0
; infill_speed = 15
; overhangs = 0
; perimeter_extruder = 1
; perimeter_extrusion_width = 100%
; perimeter_speed = 15
; perimeters = 4
; small_perimeter_speed = 15
; solid_infill_below_area = 50
; solid_infill_every_layers = 0
; solid_infill_extruder = 1
; solid_infill_extrusion_width = 100%
; solid_infill_speed = 15
; thin_walls = 1
; top_infill_extrusion_width = 100%
; top_infill_pattern = rectilinear
; top_solid_infill_speed = 15
; top_solid_layers = 0
